X:30
T:[untitled]
N:[Murdoch Henderson's writing:] Anon
Z:Jack Campin - http://www.campin.me.uk
S:Blaikie MS (NLS MS.1578) p12, Blaikie #29
M:C
L:1/8
V:1 midi program 1 74
V:2 midi program 1 46 bass middle = d transpose -24
Q:1/4=80
K:D
[V:1] F|DD DF/A/ BBA>A|BB c/d/e/f/ d3 A|d>cBF AFD>F|A>B F/D/F/A/ D3|]
[V:2] z|d2 d2    g2f2 |g2 a2       f2d2|D2 d2 D2d2 |fg  a```A    d3|]
W:Transcription (c) Jack Campin 2009, no mirroring or republication without permission

